!! 00000] TT[WS
!!!OTL: Hai tai
!!!ARE: Asia, China, Shanxi Daixian
!! Ethnic Group: Han
!! WII, 162 (2)
!!!SCT: J0646
!!!YEM: Copyright 1995, estate of Helmut Schaffrath.
**kern
*ICvox
*Ivox
*M2/4
*k[f#c#g#]
*A:
{4b
8b
8cc#
=1
4b
8f#
8a
=2
4.b
8cc#
=3
4b
4r}
=4
{4a
8a
8cc#
=5
4b
8a
8f#
=6
4.e
8c#
=7
4e
4r}
=8
{8b
8cc#
8b
8a
=9
8b
8cc#
8b
8a
=10
4f#
8f#
8a
=11
2d}
=12
{8f#
8e
8f#
8a
=13
8e
8f#
8e
8d
=14
4.B
8A
=15
2B}
==
!!!AGN: Xiaodiao. Aisu
!!!ONB: ESAC (Essen Associative Code) Database: CHINA
!!!AMT: simple duple
!!!AIN: vox
!!!EED: Helmut Schaffrath
!!!EEV: 1.0
*-
